X:918
T:Polska
T:efter Pelle Fors
R:Polska
O:Vikbolandet, Östergötland
S:efter Pelle Fors
B:Låtar efter Pelle Fors
Z:Björn Ek 2009-01-02
M:3/4
L:1/16
K:D
%
|:A2d2 d2A2 FDFA|A2d2 d2A2 F2A2|d2df e2eg f2d2|A2A2 G2G2 F2D2|
A2d2 d2A2 FDFA  |A2d2 d2A2 F2A2|d2df e2eg f2d2|ABAG G4 F4   :|
%
|:dfag e2c2 e2c2|Aceg f2d2 f2d2|dfag e2c2 e2c2|
Aceg f2d2 f2d2|dBAF F2E2 E2C2|A,CEG F4 D4:|
%
(:musicend:)

(:music:)
